X:50
T:Lady Cholmondley’s Reel. 2voices. Dix.50
M:3/8
L:1/8
Q:3/8=60
S:Anon. MS dated 1811, from Dixon collection, Holton le Moor, Lincs.
R:waltz
N:Handwritten pencil note “Waltz” next to title in ms
O:England;Lincolnshire;Holton le Moor
Z:vmp.R.Greig 2012 <http://www.village-music-project.org.uk>
K:D
[V:1]|:F/G/|AAd|BBe|cA/B/c/A/|dfa|AAd|BBe|cA/B/c/A/|[d2F2]:|!
[V:2]|:z|D,[B,G,][B,G,]|D,[B,G,][B,G,]|A,,[A,E,][A,E,]|D,[A,F,][A,F,]|D,[A,F,][A,F,]|D,[B,G,][B,G,]|A,,[A,E,][A,E,]|[F,2D,2]:|!
[V:1]|:F|ggf|eed|cA/B/c/d/|eeA|ggf|eed|cA/B/c/A/|d2:|!
[V:2]|:z|A,,A,A,|A,,A,A,|A,,A,A,|A,,A,A,|C,A,A,|C,A,D,|A,,[A,E,][A,E,]|[F,2D,2]:|!
[V:1]|:A|A2F|F2D|EE/F/G/A/|FDA|A2F|d2B|AA/F/G/E/|D2:|!
[V:2]|:A,|A,2F,|F,2D,|A,,A,A,|D,A,A,|D,A,A,|D,[B,G,][B,G,]|D,A,A,,|D,2:|

